src/Icon/svgs/VolumeOutline.svg

<svg width="24" height="24" viewBox="0 0 24 24" fill="none" xmlns="http://www.w3.org/2000/svg">
<path fill-rule="evenodd" clip-rule="evenodd" d="M13 4C13 3.63121 12.797 3.29235 12.4719 3.11833C12.1467 2.94431 11.7522 2.96338 11.4453 3.16795L5.69722 7L2 7C1.44772 7 1 7.44772 1 8L1 16C1 16.5523 1.44772 17 2 17L5.69722 17L11.4453 20.8321C11.7522 21.0366 12.1467 21.0557 12.4719 20.8817C12.797 20.7077 13 20.3688 13 20V4ZM3 15L6.2 15L11 18.1315V5.86852L6.2 9H3V15Z" fill="#1B1C1D"/>
<path d="M23 12C23 8.56811 21.7136 5.48075 19.6791 3.45672L18.1031 4.71748C19.8488 6.34636 21 8.98783 21 12C21 15.0122 19.8488 17.6536 18.1031 19.2825L19.6791 20.5433C21.7136 18.5193 23 15.4319 23 12Z" fill="#1B1C1D"/>
<path d="M19 12C19 9.58934 18.0649 7.41238 16.5748 5.9402L14.9973 7.20219C16.2072 8.29171 17 10.0257 17 12C17 13.9743 16.2072 15.7083 14.9973 16.7978L16.5748 18.0598C18.0649 16.5876 19 14.4107 19 12Z" fill="#1B1C1D"/>
</svg>

<svg xmlns="http://www.w3.org/2000/svg" width="24" height="24" fill="#1b1c1d"  xmlns:v="https://vecta.io/nano"><path fill-rule="evenodd" d="M13 4a1 1 0 0 0-1.555-.832L5.697 7H2a1 1 0 0 0-1 1v8a1 1 0 0 0 1 1h3.697l5.748 3.832A1 1 0 0 0 13 20V4zM3 15h3.2l4.8 3.131V5.869L6.2 9H3v6z"/><path d="M23 12c0-3.432-1.286-6.519-3.321-8.543l-1.576 1.261C19.849 6.346 21 8.988 21 12s-1.151 5.654-2.897 7.282l1.576 1.261C21.714 18.519 23 15.432 23 12zm-4 0c0-2.411-.935-4.588-2.425-6.06l-1.578 1.262C16.207 8.292 17 10.026 17 12s-.793 3.708-2.003 4.798l1.578 1.262C18.065 16.588 19 14.411 19 12z"/></svg>
